material/.icons/material/home-edit-outline.svg

<svg xmlns="http://www.w3.org/2000/svg" viewBox="0 0 24 24"><path d="M12 3L2 12h3v8h6v-6h2v2.11l2-2V12H9v6H7v-7.81l5-4.5 5 4.5v1.92l2.43-2.43L12 3m9.04 8.14a.59.59 0 00-.39.16l-1 1 2.05 2.05 1-1a.55.55 0 000-.77l-1.28-1.28c-.1-.1-.24-.16-.38-.16m-1.98 1.74L13 18.94V21h2.06l6.05-6.07-2.05-2.05z"/></svg>

<?xml version="1.0" encoding="UTF-8"?><!DOCTYPE svg PUBLIC "-//W3C//DTD SVG 1.1//EN" "http://www.w3.org/Graphics/SVG/1.1/DTD/svg11.dtd"><svg xmlns="http://www.w3.org/2000/svg" xmlns:xlink="http://www.w3.org/1999/xlink" version="1.1" id="mdi-home-edit-outline" width="24" height="24" viewBox="0 0 24 24"><path d="M12 3L2 12H5V20H11V14H13V16.11L15 14.11V12H9V18H7V10.19L12 5.69L17 10.19V12.11L19.43 9.68L12 3M21.04 11.14C20.9 11.14 20.76 11.2 20.65 11.3L19.65 12.3L21.7 14.35L22.7 13.35C22.91 13.14 22.91 12.79 22.7 12.58L21.42 11.3C21.32 11.2 21.18 11.14 21.04 11.14M19.06 12.88L13 18.94V21H15.06L21.11 14.93L19.06 12.88Z" /></svg>
